!!!!SEGMENT: pl-wtm--a-29-279-75_joteyko-tadeusz--mow-do-mnie-op-2-no-2.krn
!!!cenid: 19xx:118
!!!COM: Joteyko, Tadeusz
!!!COM-rismID: pe50046072
!!!CDT: 1872-1932
!!!CNT: Polish
!!!OTL: Mów do mnie Op. 2 No. 2
!!!PDT:
!!!AGN: Secular; Song
!!!YEC: Copyright 2022 Narodowy Instytut Fryderyka Chopina (https://polishscores.org)
!!!YEM: License CC-BY-4.0 (https://creativecommons.org/licenses/by/4.0)
!!!SMS-siglum: PL-Wtm
!!!SMS-shelfmark: A.29.279/75
!!!SMS-variant:
!!!SMS-altvar:
!!!SMS-shelfwork: W
!!!NIFC-rismSourceID: 1001208579
!!!NIFC-rismChildID: 1001208579
!!!NIFC-islandoraID: pl-wtm:34312
!!!URL-pdf-islandora: https://repozytorium.nifc.pl/islandora/object/pl-wtm%3A34312/datastream/PDF/view
!!!URL-scan: https://polish.musicsources.pl/pl/lokalizacje/galeria/druki-muzyczne/20548/2 @EN{Scan on Polish Music Sources Website} @PL{Skany w portalu Dziedzictwo Muzyki Polskiej w otwartym dostępie}
!!!IIIF:
!!!ONB-nifc:
!!!AIN: 1 canto 1 piano
!!!key: a
**kern	**kern	**dynam	**kern	**text	**dynam
*part2	*part2	*part2	*part1	*part1	*part1
*staff3	*staff2	*staff2/3	*staff1	*staff1	*
*group2	*group2	*	*group1	*	*
*IGacmp	*IGacmp	*	*IGsolo	*	*
*ICklav	*ICklav	*	*ICvox	*	*
*Ipiano	*Ipiano	*	*Icanto	*	*
*I"Fortepian.	*I"Fortepian.	*	*I"Śpiew.	*	*
*I'	*I'	*	*I'	*	*
*clefF4	*clefG2	*	*clefG2	*	*
*k[]	*k[]	*	*k[]	*	*
*a:	*a:	*	*a:	*	*
*M4/4	*M4/4	*	*M4/4	*	*
*met(c)	*met(c)	*	*met(c)	*	*
=1	=1	=1	=1	=1	=1
!!LO:TX:a:B:t=Andantino e mesto.
!	!LO:TX:a:B:t=Andantino e mesto.	!	!	!	!
1r	8r	pp	2r	.	.
.	8eL 8c/	.	.	.	.
.	8e 8c/	.	.	.	.
.	8eJ 8c/	.	.	.	.
.	8eL 8c/	.	8r	.	.
.	8e 8c/	.	8e/	Mów	.
.	8e 8c/	.	8f/	do	.
.	8eJ 8c/	.	8e/	mnie	.
=2	=2	=2	=2	=2	=2
(2A\	8r	.	4a/	jesz-	.
.	8eL 8c/	.	.	.	.
.	8e 8c/	.	8a/	-cze..	.
.	8eJ 8c/	.	16r	.	.
.	.	.	16a/	za	.
2G\	8eL 8c/	<	4a/	ta-	.
.	8e 8c/	.	.	.	.
.	8e 8c/	.	8b\	-ką	.
.	8eJ 8c/	[[	8cc\	roz-	.
=3	=3	=3	=3	=3	=3
1F)	8r	.	2ee\	-mo-	.
!	!	!	!LO:TX:a:i:t=con passione	!	!
.	8aL 8d 8A/	.	.	.	.
.	8a 8d 8A/	.	.	.	.
.	8aJ 8d 8A/	.	.	.	.
.	8aL 8d 8A/	.	8dd\	-wą	.
.	8a 8d 8A/	.	8dd\	tęs-	.
.	8a 8d 8A/	.	8cc\	-kni-	.
.	8aJ 8d 8A/	.	8b\	-łem	.
!!LO:LB:g=original
=4	=4	=4	=4	=4	=4
!LO:N:vis=1	!	!	!	!	!
[2E\	8r	.	2cc\	la-	.
.	.	>	.	.	.
.	8g#XL 8d 8B/	.	.	.	.
.	8g# 8d 8B/	.	.	.	.
.	8g#J 8d 8B/	.	.	.	.
8E\L]	8g#L 8d 8B/	]	4b\	-ta....	.
!LO:TX:b:i:t=molto espressivo	!	!	!	!	!
(8E\	8g# 8d 8B/	<	.	.	.
8F#X\	8g# 8d 8B/	.	4r	.	.
8G#X\J	8g#J 8d 8B/	[[	.	.	.
=5	=5	=5	=5	=5	=5
4c\	8r	.	2r	.	.
.	8g#X 8e 8d/	.	.	.	.
4B\	8r	.	.	.	.
.	8g# 8e 8d/	>	.	.	.
2E\)	8r	.	8b\	Każ-	.
.	8g#L 8e 8d/	.	8b\	-de	.
.	8g# 8e 8d/	]	8g#X/	two-	.
.	8g#J 8e 8d/	.	8e/	-je	.
=6	=6	=6	=6	=6	=6
2A 2AA\	8r	.	4a/	sło-	.
.	8aL 8e 8c/	.	.	.	.
.	8a 8e 8c/	.	8a/	-wo	.
.	8aJ 8e 8c/	.	8r	.	.
2G 2GG/	8aL 8e 8c/	.	4a/	dziw-	.
.	8a 8e 8c/	.	.	.	.
.	8a 8e 8c/	.	8b\	-ne	.
.	8aJ 8e 8c/	.	8cc\	w mem	.
!!LO:LB:g=original
=7	=7	=7	=7	=7	=7
*^	*	*	*	*	*
8r	1F 1FF	8r	<	4dd\	ser-	.
8AL 8F/	.	8aL 8f 8d/	.	.	.	.
8A 8F/	.	8a 8f 8d/	.	4a/	-cu	.
8AJ 8F/	.	8aJ 8f 8d/	.	.	.	.
8AL 8F/	.	8aL 8f 8d/	.	8dd\	wy-	.
8A 8F/	.	8a 8f 8d/	.	8dd\	-wo-	.
8A 8F/	.	8a 8f 8d/	.	8cc\	-łu-	.
8AJ 8F/	.	8aJ 8f 8d/	[	8dd\	-je	.
=8	=8	=8	=8	=8	=8	=8
!	!	!	!	!	!	!LO:DY:a
8rB	1C 1CC	8r	<	2ee\	dresz-	<
8AL 8E 8C/	.	8eeL 8cc 8a 8e/	.	.	.	.
8A 8E 8C/	.	8ee 8cc 8a 8e/	.	.	.	.
8AJ 8E 8C/	.	8eeJ 8cc 8a 8e/	.	.	.	.
8AL 8E 8C/	.	8eeL 8cc 8a 8e/	.	4ee\	-cze,	.
8A 8E 8C/	.	8ee 8cc 8a 8e/	[	.	.	.
8A 8E 8C/	.	8ee 8cc 8a 8e/	.	8r	.	[
8AJ 8E 8C/	.	8eeJ 8cc 8a 8e/	.	8ee\	mów	.
=9	=9	=9	=9	=9	=9	=9
!	!	!	!	!	!	!LO:DY:a:rj
8rB	1D 1DD^	2.gg 2.a 2.g^\	f	2.gg^\	do	f
!	!	!	!	!LO:TX:a:i:t=con passione	!	!
8AL 8F 8D/	.	.	.	.	.	.
8A 8F 8D/	.	.	.	.	.	.
8AJ 8F 8D/	.	.	.	.	.	.
8AL 8F 8D/	.	.	.	.	.	.
8A 8F 8D/	.	.	.	.	.	.
8A 8F 8D/	.	4ff 4a 4f\	.	4ff\	mnie	.
8AJ 8F 8D/	.	.	.	.	.	.
*v	*v	*	*	*	*	*
!!LO:PB:g=original
=10	=10	=10	=10	=10	=10
!	!LO:S:s=1:note:problem=note-level slur	!	!	!	!
8AL 8F 8D\	[2dd (<2a [2f/	.	4dd\	jesz-	.
8A 8F 8D\	.	.	.	.	.
8A 8F 8D\	.	.	4a/	-cze,	.
8AJ 8F 8D\	.	.	.	.	.
!!LO:TX:a:i:t=poco rit.
!	!LO:TX:b:i:t=poco rit.	!	!	!	!
!	!LO:S:s=1:note:problem=note-level slur	!	!	!	!
8BL 8F 8D\	4dd] 4b) 4f/]	>	8r	.	.
8B 8F 8D\	.	.	8dd\	mow	.
8B 8F 8D^<\	4r	.	8cc^\	do	.
8BJ 8F 8D\	.	.	8b\	mnie	.
=11	=11	=11	=11	=11	=11
*	*^	*	*	*	*
2E 2EE/	8r	2ryy	]	(2.ee\	jesz-	.
!	!LO:TX:a:i:t=espressivo	!	!	!	!	!
.	(>8eL 8d/	.	<	.	.	.
.	8f#X 8d/	.	.	.	.	.
.	8g#XJ 8d/	.	.	.	.	.
2G#X: 2BB: 2EE:/	4cc/	8rc	.	.	.	.
.	.	8e 8d\	[	.	.	.
.	4b/	8rc	.	4b\)	.	.
.	.	8e 8d\	.	.	.	.
=12	=12	=12	=12	=12	=12	=12
*	*	*	*	*^	*	*
1E 1AA	1a)	8rc	>	2a/	2ryy	-cze!	.
.	.	8eL 8c\	.	.	.	.	.
.	.	8e 8c\	.	.	.	.	.
.	.	8eJ 8c\	]	.	.	.	.
!	!LO:TX:b:i:t=poco agitato	!	!	!	!	!	!LO:DY:a
.	.	8eL 8c\	.	8r	4ryy	.	pp
!!LO:TX:a:i:t=poco agitato
.	.	8e 8c\	.	8a/	.	Mow	.
.	.	8e 8c\	.	8a/	4a\	do	.
.	.	8eJ 8c\	.	8a/	.	mnie	.
*	*v	*v	*	*	*	*	*
*	*	*	*v	*v	*	*
!!LO:LB:g=original
=13	=13	=13	=13	=13	=13
*^	*	*	*	*	*
4rG	1CC	8r	pp	4b-X\	jesz-	.
.	.	4b-X 4g 4e 4c/	.	.	.	.
(4E/	.	.	.	8b-\	-cze,	.
.	.	4b- 4g 4e 4c/	.	8r	.	.
4G/	.	.	.	8b-\	lu-	.
.	.	4b- 4g 4e 4c/	.	8b-\	-dzie	.
4B-X/)	.	.	.	8a/	nas	.
.	.	8b- 8g 8e 8c/	.	8b-\	nie	.
=14	=14	=14	=14	=14	=14	=14
4rG	1FF	8r	.	4dd\	sły-	.
.	.	4a 4f 4c/	.	.	.	.
(4C/	.	.	.	4cc\	-szą,	.
.	.	4a 4f 4c/	.	.	.	.
4F/	.	.	.	8r	.	.
.	.	4a 4f 4c/	.	8cc\	sło-	.
4A/)	.	.	.	8bn\	-wa	.
.	.	8a 8f 8c/	.	8a/	twe	.
=15	=15	=15	=15	=15	=15	=15
4rG	1GG	8r	.	4b\	dziw-	.
.	.	4bn 4f 4d/	.	.	.	.
(4D/	.	.	.	4b\	-nie	.
.	.	4b 4f 4d/	.	.	.	.
4G/	.	.	.	8b\	po-	.
.	.	4b 4f 4d/	.	8b\	-ją	.
4Bn/)	.	.	.	8a/	i	.
.	.	8b 8f 8d/	.	8g/	ko-	.
!!LO:LB:g=original
=16	=16	=16	=16	=16	=16	=16
4rA	1CC	8r	<	4ee\	-ły-	.
.	.	4cc 4e 4c/	.	.	.	.
(4C/	.	.	.	4cc\	-szą,	.
.	.	[8cc [8e [8c/	[	.	.	.
!!LO:TX:a:i:t=a tempo
!	!	!LO:TX:b:i:t=a tempo	!	!	!	!
4E/	.	8cc]L 8e] 8c/]	.	8r	.	.
.	.	8cc 8e 8c/	.	8cc\	jak	.
4G/)	.	8b 8e 8c/	.	8b\	kwia-	.
.	.	8aJ 8e 8c/	.	8a/	-tem	.
=17	=17	=17	=17	=17	=17	=17
8rc	2D 2DD\	8r	.	4a/	każ-	.
8AL 8F/	.	8aL 8f 8d/	<	.	.	.
8A 8F/	.	8a 8f 8d/	.	4a/	-dem	.
8AJ 8F/	.	8aJ 8f 8d/	.	.	.	.
8rc	2F 2FF\	8aL 8f 8d/	.	8dd\	sło-	.
8AL 8F/	.	8a 8f 8d/	.	8dd\	-wem	.
8A 8F/	.	8a 8f 8d/	[	8cc\	twem	.
8AJ 8F/	.	8aJ 8f 8d/	.	8dd\	się	.
=18	=18	=18	=18	=18	=18	=18
!	!	!	!	!	!	!LO:DY:a
8rc	1C 1CC	8r	.	2ee\	piesz-	<
8AL 8E 8C/	.	8eeL 8cc 8a 8e/	.	.	.	.
8A 8E 8C/	.	8ee 8cc 8a 8e/	.	.	.	.
8AJ 8E 8C/	.	8eeJ 8cc 8a 8e/	.	.	.	.
8AL 8E 8C/	.	8eeL 8cc 8a 8e/	.	4ee\	-czę,	[
8A 8E 8C/	.	8ee 8cc 8a 8e/	.	.	.	.
8A 8E 8C/	.	8ee 8cc 8a 8e/	.	8r	.	.
8AJ 8E 8C/	.	8eeJ 8cc 8a 8e/	.	8ee\	mów	.
!!LO:LB:g=original
=19	=19	=19	=19	=19	=19	=19
!	!	!	!	!LO:N:vis=2	!	!LO:DY:a:rj
8rc	1D 1DD^	2.gg 2.a 2.g^\	f	2.gg^\	do	f
!	!	!	!	!LO:TX:a:i:t=con passione	!	!
8AL 8F 8D/	.	.	.	.	.	.
8A 8F 8D/	.	.	.	.	.	.
8AJ 8F 8D/	.	.	.	.	.	.
8AL 8F 8D/	.	.	.	.	.	.
8A 8F 8D/	.	.	.	.	.	.
8A 8F 8D/	.	4ff 4a 4f\	.	4ff\	mnie	.
8AJ 8F 8D/	.	.	.	.	.	.
*v	*v	*	*	*	*	*
=20	=20	=20	=20	=20	=20
!	!LO:S:s=1:note:problem=note-level slur	!	!	!	!
8AL 8F 8D\	[2dd (<2a [2f/	.	4dd\	jesz-	.
8A 8F 8D\	.	.	.	.	.
8A 8F 8D\	.	.	4a/	-cze,	.
8AJ 8F 8D\	.	.	.	.	.
!!LO:TX:a:i:t=poco rit.
!	!LO:TX:b:i:t=poco rit.	!	!	!	!
!	!LO:S:s=1:note:problem=note-level slur	!	!	!	!
8BL 8F 8D\	4dd] 4b) 4f/]	>	8r	.	.
8B 8F 8D\	.	.	8dd\	mów	.
8B 8F 8D^<\	4r	.	8cc^\	do	.
8BJ 8F 8D\	.	.	8b\	mnie	.
=21	=21	=21	=21	=21	=21
*	*^	*	*	*	*
2E 2EE/	8r	2ryy	]	(2.ee\	jesz-	.
!	!LO:TX:a:i:t=espressivo	!	!	!	!	!
.	(>8eL 8d/	.	<	.	.	.
.	8f#X 8d/	.	.	.	.	.
.	8g#XJ 8d/	.	.	.	.	>
2G#X: 2BB: 2EE:/	4cc/	8rc	.	.	.	.
.	.	8e 8d\	[	.	.	.
.	4b/	8rc	.	4b\)	.	]]
.	.	8e 8d\	.	.	.	.
=22	=22	=22	=22	=22	=22	=22
!	!	!	!	!	!	!LO:DY:a
2E 2AA/	1a;)	8rc	>	1a;	-cze!	ppp
.	.	8eL 8c\	.	.	.	.
.	.	8e 8c\	.	.	.	.
.	.	8eJ 8c\	] ppp	.	.	.
2AA 2AAA;</	.	2e 2c;\	.	.	.	.
*	*v	*v	*	*	*	*
==	==	==	==	==	==
*-	*-	*-	*-	*-	*-
!!!system-decoration: g1{(g2)}
!!!RDF**kern: i = editorial accidental
!!!RDF**kern: > = above
!!!RDF**kern: < = below
!!!RDF**kern: N = linked
!!!RDF**dynam: > = "dim.", fontstyle= "italic"
!!!ENC: Andrzej Gręziak
!!!EED: Katarzyna Serwa
!!!END: 2023-10-03
!!!EEV: 2023-10-14
